**kern	**kern	**dynam
*part1	*part1	*part1
*staff2	*staff1	*
*I"Piano	*	*
*clefF4	*clefG2	*
*k[b-e-a-d-g-]	*k[b-e-a-d-g-]	*
=1	=1	=1
*	*^	*
4AA- 4A-	4ff	8a-L 8ff	.
.	.	8dd-	.
4d- 4f	4ff	8a- 8ff	.
.	.	8dd-J	.
4AA-	8.ffL	4g-	>
.	16ee-Jk	.	.
*	*v	*v	*
=	=	=
*^	*	*
8D-L	2.DD-	4f 4dd-	]
8AA-	.	.	.
8D-	.	4r	.
8AA-	.	.	.
8D-	.	4r	.
8AA-J	.	.	.
=	=	=	=
8D-L	2.DD-	4c 4e-	.
8AA-	.	.	.
8D-	.	4d- 4f	.
8AA-	.	.	.
8D-	.	4e- 4g-	.
8AA-J	.	.	.
=	=	=	=
8D-L	2.DD-	4d- 4f	.
8AA-	.	.	.
8D-	.	4r	.
8AA-	.	.	.
8D-	.	4r	.
8AA-J	.	.	.
*	*	*clefF4	*
=	=	=	=
8D-L	2.DD-	4E- 4c	.
8AA-	.	.	.
8D-	.	4F 4d-	.
8AA-	.	.	.
8D-	.	4G- 4e-	.
8AA-J	.	.	.
=	=	=	=
8D-L	[2.DD-	4F 4d-	.
8AA-	.	.	.
8D-	.	4r	.
8AA-	.	.	.
8D-	.	4r	.
8AA-J	.	.	.
*	*	*clefG2	*
=	=	=	=
4D-;	4DD-]	2.r;	.
4r	2ryy	.	.
4r	.	.	.
*v	*v	*	*
=	=	=
*-	*-	*-
!!!system-decoration: {(s1,s2)}
